apps/web/public/logo/aiment_logo_rounded.svg

<svg width="200" height="200" viewBox="0 0 200 200" fill="none" xmlns="http://www.w3.org/2000/svg">
<g clip-path="url(#clip0_150_2)">
<circle cx="100" cy="100" r="100" fill="white"/>
<path d="M96.3127 64.2698C98.7746 62.5259 102.125 62.5259 104.587 64.2696C111.446 69.1266 119.58 72.2987 128.39 73.184C131.114 73.4577 133.609 75.0301 134.607 77.5798C136.269 81.8271 137.65 86.2156 138.725 90.7227C138.995 91.8563 140.556 92.0208 140.998 90.9426C142.978 86.1175 144.591 81.1032 145.804 75.9346C146.415 73.331 148.36 71.2502 150.867 70.3184C154.025 69.1446 157.032 67.6612 159.852 65.9046C162.025 64.5507 164.984 65.261 165.901 67.652C168.904 75.4887 170.55 83.9974 170.55 92.8906C170.55 131.854 138.963 163.44 99.9998 163.44C61.0363 163.44 29.4501 131.854 29.45 92.8906C29.45 83.8118 31.1653 75.1336 34.289 67.1622C35.2283 64.765 38.2163 64.0859 40.3796 65.4819C48.1815 70.5169 57.4738 73.4404 67.45 73.4404C78.2018 73.4404 88.1593 70.0449 96.3127 64.2698Z" fill="#6248F7"/>
<path d="M99.9998 101C116.182 101 131.092 106.448 142.995 115.611C153.954 124.047 153.954 140.393 142.995 148.829C131.092 157.992 116.183 163.44 99.9998 163.44C83.8168 163.44 68.9064 157.992 57.0032 148.829C46.0447 140.393 46.0448 124.047 57.0034 115.611C68.9067 106.449 83.8171 101 99.9998 101Z" fill="#AC9EFF"/>
</g>
<defs>
<clipPath id="clip0_150_2">
<rect width="200" height="200" fill="white"/>
</clipPath>
</defs>
</svg>

<?xml version="1.0" encoding="UTF-8"?>
<svg id="_レイヤー_1" data-name="レイヤー_1" xmlns="http://www.w3.org/2000/svg" xmlns:xlink="http://www.w3.org/1999/xlink" version="1.1" viewBox="0 0 200 200">
  <!-- Generator: Adobe Illustrator 30.3.0, SVG Export Plug-In . SVG Version: 2.1.3 Build 182)  -->
  <defs>
    <style>
      .st0 {
        fill: none;
      }

      .st1 {
        fill: #ac9eff;
      }

      .st2 {
        fill: #fff;
      }

      .st3 {
        fill: #6248f7;
      }

      .st4 {
        clip-path: url(#clippath);
      }
    </style>
    <clipPath id="clippath">
      <rect class="st0" width="200" height="200"/>
    </clipPath>
  </defs>
  <g class="st4">
    <g>
      <circle class="st2" cx="100" cy="100" r="100"/>
      <path class="st3" d="M96.31,64.27c2.46-1.74,5.81-1.74,8.27,0,6.86,4.86,14.99,8.03,23.8,8.91,2.72.27,5.22,1.85,6.22,4.4,1.66,4.25,3.04,8.64,4.12,13.14.27,1.13,1.83,1.3,2.27.22,1.98-4.83,3.59-9.84,4.81-15.01.61-2.6,2.56-4.68,5.06-5.62,3.16-1.17,6.16-2.66,8.99-4.41,2.17-1.35,5.13-.64,6.05,1.75,3,7.84,4.65,16.35,4.65,25.24,0,38.96-31.59,70.55-70.55,70.55S29.45,131.85,29.45,92.89c0-9.08,1.72-17.76,4.84-25.73.94-2.4,3.93-3.08,6.09-1.68,7.8,5.03,17.09,7.96,27.07,7.96,10.75,0,20.71-3.4,28.86-9.17Z"/>
      <path class="st1" d="M100,101c16.18,0,31.09,5.45,43,14.61,10.96,8.44,10.96,24.78,0,33.22-11.9,9.16-26.81,14.61-43,14.61s-31.09-5.45-43-14.61c-10.96-8.44-10.96-24.78,0-33.22,11.9-9.16,26.81-14.61,43-14.61Z"/>
    </g>
  </g>
</svg>
